X: 1
T:Duncan The Gauger  "http://freespace.virgin.net/michael.clarke2/index.
M:6/8
L:1/8
Q:80
C:P.M. Evan MacRae
S:Jig
K:HP
|: e|
{A}ede{g}A3/2e/2{A}e|
{g}de{g}Ae{g}de|
{g}Bd{G}d{g}G{d}B{G}B|  !
{g}Bd{e}G{g}Bde| |
{A}ede{g}A3/2e/2{A}e|
{g}de{g}Ae{g}de|  !
{g}Bd{G}d{g}G{d}B{G}B|
{g}Bde{g}A3:| |:
| {g}A{d}A{e}A{g}Ae{A}e|  !
{g}de{g}Ae{g}de|
{g}G{d}G{e}G{g}G{d}B{G}B|
{g}G{d}B{e}G{g}Bde| |  !
{g}A{d}A{e}A{g}Ae{A}e|
{g}de{g}Ae{g}de|
{g}Bd{G}d{g}G{d}B{G}B|  !
{g}Bde{g}A3:| |:
| {g}e{A}eage{A}e|
{g}de{g}Ae{g}de|  !
{g}e{A}eage{A}e|
{g}Bd{g}G{g}Bde| |
{g}e{A}eage{A}e|  !
{g}de{g}Ae{g}de|
{g}Bd{G}d{g}G{d}B{G}B|
{g}Bde{g}A3:| |:  !
| {g}A{d}A{e}Aaga|
g{a}Bgaga|
G{d}G{e}G{d}Bg{f}g|  !
{g}Bd{g}G{g}Bde| |
{g}A{d}A{e}Aaga|
g{a}Bgaga|  !
{g}Bd{G}d{g}G{d}B{G}B|
{g}Bde{g}A3:|
